assets/images/script/m-2-top.svg

<svg fill="none" height="241" viewBox="0 0 306 241" width="306" xmlns="http://www.w3.org/2000/svg"><path d="m73.0569 137.296c-4.6609 4.661 4.2413 7.152 8.2894 8.777 21.9387 8.812 48.4367 2.406 67.7787-9.752 9.026-5.674 24.382-24.781 19.179-37.9317-6.838-17.285-31.419-25.403-47.298-30.0695-28.9543-8.5089-61.3903-11.8417-91.5094-9.5898-4.6737.3494-27.28813 3.5011-27.14386 3.4133 56.36586-34.3097 125.59126-39.0048 187.40626-57.86359 10.493-3.20128 7.148 3.61761 8.696 12.19039 5.245 29.0495 20.604 56.0167 32.589 82.6507 14.408 32.0182 27.484 64.8972 25.762 100.7732-.697 14.526-7.807 32.275-23.324 37.448-13.831 4.61-12.637-15.546-12.353-23.225 1-27.006 8.935-54.263 24.95-76.15 15.246-20.836 22.252-28.753 43.969-42.994 1.896-1.2431 8.956-6.7265 11.784-4.5511 2.013 1.5484.558 3.0998-.406 4.0635" stroke="#000" stroke-linecap="round" stroke-width="5"/></svg>

<svg width="306" height="241" viewBox="0 0 306 241" fill="none" xmlns="http://www.w3.org/2000/svg">
<path d="M73.0569 137.296C68.396 141.957 77.2982 144.448 81.3463 146.073C103.285 154.885 129.783 148.479 149.125 136.321C158.151 130.647 173.507 111.54 168.304 98.3893C161.466 81.1043 136.885 72.9863 121.006 68.3198C92.0517 59.8109 59.6157 56.4781 29.4966 58.73C24.8229 59.0794 2.20847 62.2311 2.35274 62.1433C58.7186 27.8336 127.944 23.1385 189.759 4.27971C200.252 1.07843 196.907 7.89732 198.455 16.4701C203.7 45.5196 219.059 72.4868 231.044 99.1208C245.452 131.139 258.528 164.018 256.806 199.894C256.109 214.42 248.999 232.169 233.482 237.342C219.651 241.952 220.845 221.796 221.129 214.117C222.129 187.111 230.064 159.854 246.079 137.967C261.325 117.131 268.331 109.214 290.048 94.973C291.944 93.7299 299.004 88.2465 301.832 90.4219C303.845 91.9703 302.39 93.5217 301.426 94.4854" stroke="black" stroke-width="5" stroke-linecap="round"/>
</svg>
